X:1
T:Title
%%score { 1 | ( 2 3 ) }
L:1/8
Q:1/4=108
M:4/4
K:Bb
V:1 treble nm="Grand Piano"
V:2 bass 
V:3 bass 
V:1
 [DF]2 [DF]2 [DF]2 [DF]2 | [EG]2 [DF]2 [DB][Ec] [Fd]2 | c2 c2 c2 Bc | [Fd]2 [DB]2 [DF]4 | %4
w: John~R.~Sweney * * *||||
 [DF]2 [DF]2 [DF]2 [DF]2 | [EG]2 [DF]2 [DB][Ec] [Fd]2 | c3 c c2 Bc | d2 c2 [DB]4 | %8
w: ||||
 [GB]2 [GB]2 [Ge]4 | [Ge]2 [Fd]2 [Fd]4 | cccc [FB]2 c2 | d6 z2 | G2 G2 [GB]4 | F2 B2 d4 | %14
w: ||||||
 cccB d2 c2 | [DB]6 z2 |] %16
w: ||
V:2
 [B,,B,]2 [B,,B,]2 [B,,B,]2 [B,,B,]2 | [B,,B,]2 [B,,B,]2 [B,,B,]2 [B,,B,]2 | %2
 [F,A,E]2 [F,A,E]2 [F,A,E]2 [B,D][A,E] | [B,,B,]2 [B,,F,]2 [B,,B,]4 | %4
 [B,,B,]2 [B,,B,]2 [B,,B,]2 [B,,B,]2 | [B,,B,]2 [B,,B,]2 [B,,B,]2 [B,,B,]2 | %6
 [F,A,E]3 [F,A,E] [F,A,E]2 [B,D][A,E] | [F,B,F]2 [F,A,E]2 [B,,B,]4 | [E,B,]2 [E,B,]2 [E,B,]4 | %9
 [B,,B,]2 [B,,B,]2 [B,,B,]4 | [F,A,F][F,A,F][F,A,F][F,A,F] [D,B,]2[K:treble] [F,A,F]2 | [B,F]6 z2 | %12
 [E,B,E]2 [E,B,E]2 [E,B,]4 | [B,D]2 [B,D]2 [B,F]4 | %14
 [F,A,E][F,A,E][F,A,E][F,B,D] [F,B,F]2 [F,A,E]2 | [B,,F,B,]6 z2 |] %16
V:3
 x8 | x8 | z4 z2 F,2 | x8 | x8 | x8 | z4 z2 F,2 | x8 | x8 | x8 | x6[K:treble] x2 | x8 | x8 | x8 | %14
 x8 | x8 |] %16

